img/quote.svg

<svg fill="none" height="108" viewBox="0 0 128 108" width="128" xmlns="http://www.w3.org/2000/svg"><g fill="#4c48c5"><path d="m126.791 14.7945c-14.223 13.8082-22.657 27.7808-25.303 41.9178h24.31l-4.465 51.2877h-51.1006l2.9768-36c.9922-13.8082 4.2997-26.4658 9.9225-37.9726 5.6227-11.8356 14.3875-23.1781 26.2943-34.0274z"/><path d="m56.5581 14.7945c-14.2222 13.8082-22.6563 27.7808-25.3023 41.9178h24.3101l-4.4651 51.2877h-51.1008l2.97674-36c.99225-13.8082 4.29974-26.4658 9.92246-37.9726 5.6228-11.8356 14.3876-23.1781 26.2946-34.0274z"/></g></svg>

<svg width="128" height="108" viewBox="0 0 128 108" fill="none" xmlns="http://www.w3.org/2000/svg">
<path d="M126.791 14.7945C112.568 28.6027 104.134 42.5753 101.488 56.7123H125.798L121.333 108H70.2324L73.2092 72C74.2014 58.1918 77.5089 45.5342 83.1317 34.0274C88.7544 22.1918 97.5192 10.8493 109.426 0L126.791 14.7945Z" fill="#4C48C5"/>
<path d="M56.5581 14.7945C42.3359 28.6027 33.9018 42.5753 31.2558 56.7123H55.5659L51.1008 108H0L2.97674 72C3.96899 58.1918 7.27648 45.5342 12.8992 34.0274C18.522 22.1918 27.2868 10.8493 39.1938 0L56.5581 14.7945Z" fill="#4C48C5"/>
</svg>
